assets/img/braze_icons/git-merge.svg

<svg fill="none" height="24" viewBox="0 0 24 24" width="24" xmlns="http://www.w3.org/2000/svg"><path clip-rule="evenodd" d="m7.04652 9.86171c1.70157-.46001 2.95348-2.01466 2.95348-3.86171 0-2.20914-1.79086-4-4-4s-4 1.79086-4 4c0 1.86384 1.27477 3.42994 3 3.87398v11.12602c0 .5523.44772 1 1 1s1-.4477 1-1v-5.9999c.28228.3763.59237.7344.92893 1.071 1.6659 1.6659 3.85907 2.6833 6.18727 2.8898.4303 1.745 2.0059 3.0391 3.8838 3.0391 2.2091 0 4-1.7909 4-4s-1.7909-4-4-4c-1.847 0-3.4017 1.2519-3.8617 2.9535-1.8049-.1955-3.4994-1.0009-4.79515-2.2966-1.29578-1.2958-2.10114-2.9903-2.29663-4.79519z" fill="#801ed7" fill-rule="evenodd"/></svg>

<svg width="24" height="24" viewBox="0 0 24 24" fill="none" xmlns="http://www.w3.org/2000/svg">
<path fill-rule="evenodd" clip-rule="evenodd" d="M7.04652 9.86171C8.74809 9.4017 10 7.84705 10 6C10 3.79086 8.20914 2 6 2C3.79086 2 2 3.79086 2 6C2 7.86384 3.27477 9.42994 5 9.87398V21C5 21.5523 5.44772 22 6 22C6.55228 22 7 21.5523 7 21V15.0001C7.28228 15.3764 7.59237 15.7345 7.92893 16.0711C9.59483 17.737 11.788 18.7544 14.1162 18.9609C14.5465 20.7059 16.1221 22 18 22C20.2091 22 22 20.2091 22 18C22 15.7909 20.2091 14 18 14C16.153 14 14.5983 15.2519 14.1383 16.9535C12.3334 16.758 10.6389 15.9526 9.34315 14.6569C8.04737 13.3611 7.24201 11.6666 7.04652 9.86171Z" fill="#801ED7"/>
</svg>
